src/assets/values_icon.svg

<svg fill="none" height="50" viewBox="0 0 50 50" width="50" xmlns="http://www.w3.org/2000/svg"><path d="m49.6493 22.0343-.6682.0954c-.2029-1.422-1.0321-2.6049-2.1776-3.2723-.586-.2441-1.2769-.3908-2.0055-.3908-.8182 0-1.592.1836-2.2865.5124l.0005.001-9.8259 4.4752-1.5173.6911.1048-1.664c.0057-.0904.0201-.1658.032-.2179.0026-.0116.0054-.0232.0081-.0341-.0657-1.7849-1.5094-3.1879-3.2527-3.1879-.0876 0-.1762.0038-.2726.011l-.059-.6312v.6322h-6.4332-.1453l-.1393-.0413-8.0947-2.4031-.0121-.0036v-.0001c-.0008-.0002-.0074-.0021-.0191-.0039-.0114-.0017-.025-.0028-.0396-.0028h-.0034-3.68856-1v-1-1.3067c0-.1743-.13648-.2929-.27542-.2929h-6.6033c-.13895 0-.27542.1186-.27542.2929v21.0453c0 .1743.13647.2929.27542.2929h6.6033c.13895 0 .27542-.1186.27542-.2929v-1.7308-1.1708l1.15641.1831c3.14105.4974 5.96355 1.2985 8.63835 2.3899 1.8065.627 3.8828.9904 6.0495.9904 2.5376 0 4.9571-.4987 7.1701-1.4052l-.0018-.0044c2.0175-.9099 3.7298-1.8646 5.3473-2.9442l-.0022-.0035.0022-.0014.1372-.0865.0002.0003c.015-.0094.03-.0188.0449-.0282.5122-.3212 1.0326-.6476 1.5588-.963zm0 0-.661.139.0017.0086.3102-.0527m.3491-.0949-.3491.0949m0 0-.3068.0685c.0038.017.0066.0386.0066.0648 0 .0435-.0076.0754-.0137.0925l-.0017.004c-.274.5958-.6797 1.1202-1.1883 1.5402l-.0004-.0004-.0255.0224.0003.0003c-.7865.7204-1.6139 1.3982-2.5649 2.0846l-.006.0044c-1.9723 1.4461-4.173 2.8909-6.9444 4.5532zm-42.69521 12.9195h1v-1-18.4594-1h-1-4.05244-1v1 18.4594 1h1zm40.70111-11.4675 1.3752-1.2521-.2664-.0675-.0731-.3703-.0034-.0172-.0016-.008c-.214-1.04-.8553-1.9195-1.7356-2.4545l-.4065.6689.241-.7514c-.5112-.1757-1.0547-.268-1.6173-.268-.7471 0-1.4611.166-2.0796.4536-.0015.0007-.003.0014-.0044.002l-13.2478 6.0334.0001.0003c-.0329.0142-.0677.0218-.106.0218h-13.2321c-.139 0-.2755-.1186-.2755-.2929s.1365-.2929.2755-.2929h11.5791c.9568 0 1.7414-.2923 2.2883-.8398.5366-.537.7473-1.2236.7473-1.8324s-.2107-1.2955-.7473-1.8325c-.5469-.5475-1.3315-.8397-2.2883-.8397h-6.6152-.0034c-.0146 0-.0282-.0011-.0397-.0028-.0117-.0017-.0182-.0036-.019-.0039v-.0001l-.0121-.0036-8.0947-2.4031-.1393-.0413h-.1453-3.50486-1v1 12.8119.892l.88614.1015.18316.021c3.09466.4336 6.05806 1.2588 8.60096 2.3326l-.0038.0116c1.9365.6799 4.0126 1.0477 6.1727 1.0477 2.5107 0 4.9152-.4987 6.9968-1.3644l.2169-.088.0207-.0084.0203-.0093c1.7901-.8208 3.5048-1.7868 5.0031-2.8051.0794-.0495.1584-.0989.2372-.1481.5037-.3147.9951-.6218 1.4929-.9191l.0022-.0012c2.7375-1.6439 4.9293-3.0807 6.8909-4.5176l.0683-.0471.0089-.0062.0089-.0064c.8242-.5958 1.617-1.24 2.3457-1.9034z" stroke="#f5f5f5" stroke-width="2"/></svg>

<svg width="50" height="50" viewBox="0 0 50 50" fill="none" xmlns="http://www.w3.org/2000/svg">
<path d="M49.6493 22.0343L48.9811 22.1297C48.7782 20.7077 47.949 19.5248 46.8035 18.8574C46.2175 18.6133 45.5266 18.4666 44.798 18.4666C43.9798 18.4666 43.206 18.6502 42.5115 18.979L42.512 18.98L32.6861 23.4552L31.1688 24.1463L31.2736 22.4823C31.2793 22.3919 31.2937 22.3165 31.3056 22.2644C31.3082 22.2528 31.311 22.2412 31.3137 22.2303C31.248 20.4454 29.8043 19.0424 28.061 19.0424C27.9734 19.0424 27.8848 19.0462 27.7884 19.0534L27.7294 18.4222V19.0544H21.2962H21.1509L21.0116 19.0131L12.9169 16.61L12.9048 16.6064L12.9048 16.6063C12.904 16.6061 12.8974 16.6042 12.8857 16.6024C12.8743 16.6007 12.8607 16.5996 12.8461 16.5996H12.8427H9.15414H8.15414V15.5996V14.2929C8.15414 14.1186 8.01766 14 7.87872 14H1.27542C1.13647 14 1 14.1186 1 14.2929V35.3382C1 35.5125 1.13647 35.6311 1.27542 35.6311H7.87872C8.01767 35.6311 8.15414 35.5125 8.15414 35.3382V33.6074V32.4366L9.31055 32.6197C12.4516 33.1171 15.2741 33.9182 17.9489 35.0096C19.7554 35.6366 21.8317 36 23.9984 36C26.536 36 28.9555 35.5013 31.1685 34.5948L31.1667 34.5904C33.1842 33.6805 34.8965 32.7258 36.514 31.6462L36.5118 31.6427L36.514 31.6413L36.6512 31.5548L36.6514 31.5551C36.6664 31.5457 36.6814 31.5363 36.6963 31.5269C37.2085 31.2057 37.7289 30.8793 38.2551 30.5639L49.6493 22.0343ZM49.6493 22.0343L48.9883 22.1733L48.99 22.1819L49.3002 22.1292M49.6493 22.0343L49.3002 22.1292M49.3002 22.1292L48.9934 22.1977C48.9972 22.2147 49 22.2363 49 22.2625C49 22.306 48.9924 22.3379 48.9863 22.355L48.9846 22.359C48.7106 22.9548 48.3049 23.4792 47.7963 23.8992L47.7959 23.8988L47.7704 23.9212L47.7707 23.9215C46.9842 24.6419 46.1568 25.3197 45.2058 26.0061L45.1998 26.0105C43.2275 27.4566 41.0268 28.9014 38.2554 30.5637L49.3002 22.1292ZM6.60499 35.0487H7.60499V34.0487V15.5893V14.5893H6.60499H2.55255H1.55255V15.5893V34.0487V35.0487H2.55255H6.60499ZM47.3061 23.5812L48.6813 22.3291L48.4149 22.2616L48.3418 21.8913L48.3384 21.8741L48.3384 21.8741L48.3368 21.8661C48.1228 20.8261 47.4815 19.9466 46.6012 19.4116L46.1947 20.0805L46.4357 19.3291C45.9245 19.1534 45.381 19.0611 44.8184 19.0611C44.0713 19.0611 43.3573 19.2271 42.7388 19.5147C42.7373 19.5154 42.7358 19.5161 42.7344 19.5167L29.4866 25.5501L29.4867 25.5504C29.4538 25.5646 29.419 25.5722 29.3807 25.5722H16.1486C16.0096 25.5722 15.8731 25.4536 15.8731 25.2793C15.8731 25.105 16.0096 24.9864 16.1486 24.9864H27.7277C28.6845 24.9864 29.4691 24.6941 30.016 24.1466C30.5526 23.6096 30.7633 22.923 30.7633 22.3142C30.7633 21.7054 30.5526 21.0187 30.016 20.4817C29.4691 19.9342 28.6845 19.642 27.7277 19.642H21.1125H21.1091C21.0945 19.642 21.0809 19.6409 21.0694 19.6392C21.0577 19.6375 21.0512 19.6356 21.0504 19.6353L21.0504 19.6352L21.0383 19.6316L12.9436 17.2285L12.8043 17.1872H12.659H9.15414H8.15414V18.1872V30.9991V31.8911L9.04028 31.9926L9.22344 32.0136C12.3181 32.4472 15.2815 33.2724 17.8244 34.3462L17.8206 34.3578C19.7571 35.0377 21.8332 35.4055 23.9933 35.4055C26.504 35.4055 28.9085 34.9068 30.9901 34.0411L31.207 33.9531L31.2277 33.9447L31.248 33.9354C33.0381 33.1146 34.7528 32.1486 36.2511 31.1303C36.3305 31.0808 36.4095 31.0314 36.4883 30.9822C36.992 30.6675 37.4834 30.3604 37.9812 30.0631L37.9834 30.0619C40.7209 28.418 42.9127 26.9812 44.8743 25.5443L44.9426 25.4972L44.9515 25.491L44.9604 25.4846C45.7846 24.8888 46.5774 24.2446 47.3061 23.5812Z" stroke="#F5F5F5" stroke-width="2"/>
</svg>
